X:1
T:Title
%%score 1 { 2 | 3 }
L:1/8
Q:1/4=87
M:2/4
K:Bb
V:1 treble nm="Singstimme"
V:2 bass nm="Pianoforte"
V:3 bass 
V:1
"^Ziemlich langsam" z4 | z4 |!p! B B c d | f2 d z/ d/ | c2 F F | (d2 B) z |!<(! B B c d!<)! | %7
!>(! f2 d3/2!>)! d/ |!>(! (c G)!>)! A3/2 G/ |!>(! F2- F!>)! z |"^cresc." c B A F | %11
!>(! f2 d3/2 B/!>)! | (G c) e3/2 d/ | c2- c z |!<(! c d e =e!<)! | f2 B z/!f! B/ | %16
 g3/2 B/ (3(cd) e |!>(! f4-!>)! |!p! f2- f z | z4 | z4 |!p! B B c d | f2 d z/ d/ | c2 F F | %24
 (d2 B) z |!<(! B B c d!<)! |!>(! f2 d3/2 d/!>)! | (cG) A3/2 G/ | F2- F z | c B A F | f2 d3/2 B/ | %31
 (Gc) e3/2 d/ | c2- c z |!<(! c d e =e!<)! | f2 B z/!f! B/ | g3/2 B/ (3(cd) e |!>(! f4-!>)! | %37
!p! f2- f z | z4 | z4 |!p! B B c d | f2 d z/ d/ | c2 F F | (d2 B) z |!<(! B B c d!<)! | %45
!>(! f2 d3/2 d/!>)! | (cG) A3/2 G/ | F2- F z | c B A F | f2 d3/2 B/ | (Gc) e3/2 d/ | c2- c z | %52
!<(! c d e =e!<)! | f2 B z/!f! B/ | g3/2 B/ (3(cd) e |!>(! f4-!>)! |!p! f2- f z | z4 | z4 | z4 | %60
 z4 |!pp! f2 B B | f2 B B | z4 |] %64
V:2
!mf! .[B,,F,B,] z[K:treble] ([D,F,B,]/[DFB]/) z | %1
[K:bass] .[B,,F,B,] z[K:treble] ([D,F,B,]/[DFB]/) z | %2
[K:bass]!p! .[B,,F,B,] z[K:treble] ([D,F,B,]/[DFB]/) z | %3
[K:bass] .[B,,F,B,] z[K:treble] ([D,F,B,]/[DFB]/) z | %4
[K:bass] .[C,F,A,] z[K:treble] ([C,F,A,]/[CFA]/) z | %5
[K:bass] .[B,,F,B,] z[K:treble] ([D,F,B,]/[DFB]/) z | %6
[K:bass] .[B,,F,B,] z[K:treble] ([D,F,B,]/[DFB]/) z | %7
[K:bass] .[B,,F,B,] z[K:treble] ([D,F,B,]/[DFB]/) z | %8
[K:bass]!ped! .[C,G,B,] z[K:treble] ([C,G,B,]/[C=EB]/) z!ped-up! | %9
[K:bass] .[C,F,A,] z!<(! ([C,F,A,]/[I:staff +1][A,CF]/) z!<)! | %10
!p![I:staff -1] ([F,A,E]/"_legato"[Aef]/) z[I:staff +1] ([F,A,E]/[I:staff -1][Aef]/) z | %11
!<(![I:staff +1] ([F,B,D]/[I:staff -1][Bdf]/)!<)! z[I:staff +1] ([F,B,D]/[I:staff -1][Bdf]/) z | %12
!<(! ([G,B,E]/[GBe]/)!<)! z[I:staff +1] ([G,B,E]/[I:staff -1][GBe]/) z | %13
!<(![I:staff +1] ([G,B,C=E]/[I:staff -1][Bc=e]/)!<)![I:staff +1] z!<(! ([G,B,CE]/[I:staff -1][Bce]/)!<)![I:staff +1] z | %14
!p! ([A,CE]/[I:staff -1][Ace]/)[I:staff +1] z!<(![I:staff -1] ([A,CE]/[Ace]/)[I:staff +1] z!<)! | %15
!<(! ([F,B,D]/[I:staff -1][Bdf]/)!<)![I:staff +1] z!<(! ([F,B,D]/[I:staff -1][Bdf]/)[I:staff +1] z!<)! | %16
!mf! ([G,B,E]/[I:staff -1][GBe]/)[I:staff +1] z!<(! ([G,B,E]/[I:staff -1][GBe]/)[I:staff +1] z!<)! | %17
[I:staff -1] [A,CF]/!>(![Acf]/ z[I:staff +1] [F,A,C]/[I:staff -1][Acf]/!>)! z | %18
!p! [A,EF]/!<(![Acf]/ z[I:staff +1] [F,A,C]/[I:staff -1][Acf]/!<)! z | %19
!mf![I:staff +1] .[F,B,] z!mf![I:staff -1] ([D,F,B,]/[DFB]/) z | %20
[I:staff +1] .[B,,F,B,] z[I:staff -1] ([D,F,B,]/[DFB]/) z | %21
!p![I:staff +1] .[B,,F,B,] z[I:staff -1] ([D,F,B,]/[DFB]/) z | %22
[I:staff +1] .[B,,F,B,] z[I:staff -1] ([D,F,B,]/[DFB]/) z | %23
[I:staff +1] .[C,F,A,] z[I:staff -1] ([C,F,A,]/[CFA]/) z | %24
[I:staff +1] .[B,,F,B,] z[I:staff -1] ([D,F,B,]/[DFB]/) z | %25
[I:staff +1] .[B,,F,B,] z[I:staff -1] ([D,F,B,]/[DFB]/) z | %26
[I:staff +1] .[B,,F,B,] z[I:staff -1] ([D,F,B,]/[DFB]/) z | %27
[I:staff +1] .[C,G,B,] z[I:staff -1] ([C,G,B,]/[C=EB]/) z | %28
[I:staff +1] .[C,F,A,] z!<(! ([C,F,A,]/[I:staff -1][A,CF]/)[I:staff +1] z!<)! | %29
!p![I:staff -1] ([F,A,E]/[Aef]/) z [F,A,E]/[Aef]/ z | %30
!<(![I:staff +1] ([F,B,D]/[I:staff -1][Bdf]/)!<)! z[I:staff +1] ([F,B,D]/[I:staff -1][Bdf]/) z | %31
!<(! ([G,B,E]/[GBe]/)!<)! z[I:staff +1] ([G,B,E]/[I:staff -1][GBe]/) z | %32
!<(![I:staff +1] ([G,B,C=E]/[I:staff -1][Bc=e]/)!<)![I:staff +1] z!<(! ([G,B,CE]/[I:staff -1][Bce]/)!<)![I:staff +1] z | %33
!p! ([A,CE]/[I:staff -1][Ace]/)[I:staff +1] z[I:staff -1] ([A,CE]/[Ace]/)[I:staff +1] z | %34
!<(! ([F,B,D]/[I:staff -1][Bdf]/)!<)![I:staff +1] z!<(! ([F,B,D]/[I:staff -1][Bdf]/)[I:staff +1] z!<)! | %35
!mf! ([G,B,E]/[I:staff -1][GBe]/)[I:staff +1] z!<(! ([G,B,E]/[I:staff -1][GBe]/)[I:staff +1] z!<)! | %36
[I:staff -1] [A,CF]/!>(![Acf]/ z[I:staff +1] [F,A,C]/[I:staff -1][Acf]/!>)! z | %37
!p! [A,EF]/!<(![Acf]/ z[I:staff +1] [F,A,C]/[I:staff -1][Acf]/!<)! z | %38
!mf![I:staff +1] .[F,B,] z[I:staff -1] ([D,F,B,]/[DFB]/) z | %39
[I:staff +1] .[B,,F,B,] z[I:staff -1] ([D,F,B,]/[DFB]/) z | %40
[I:staff +1] .[B,,F,B,] z[I:staff -1] ([D,F,B,]/[DFB]/) z | %41
[I:staff +1] .[B,,F,B,] z[I:staff -1] ([D,F,B,]/[DFB]/) z | %42
[I:staff +1] .[C,F,A,] z[I:staff -1] ([C,F,A,]/[CFA]/) z | %43
[I:staff +1] .[B,,F,B,] z[I:staff -1] ([D,F,B,]/[DFB]/) z | %44
[I:staff +1] .[B,,F,B,] z[I:staff -1] ([D,F,B,]/[DFB]/) z | %45
[I:staff +1] .[B,,F,B,] z[I:staff -1] ([D,F,B,]/[DFB]/) z | %46
[I:staff +1] .[C,G,B,] z[I:staff -1] ([C,G,B,]/[C=EB]/) z | %47
[I:staff +1] .[C,F,A,] z!<(! ([C,F,A,]/[I:staff -1][A,CF]/)[I:staff +1] z!<)! | %48
!p![I:staff -1] ([F,A,E]/[Aef]/) z [F,A,E]/[Aef]/ z | %49
!<(![I:staff +1] ([F,B,D]/[I:staff -1][Bdf]/)!<)! z[I:staff +1] ([F,B,D]/[I:staff -1][Bdf]/) z | %50
!<(! ([G,B,E]/[GBe]/)!<)! z[I:staff +1] ([G,B,E]/[I:staff -1][GBe]/) z | %51
!<(![I:staff +1] ([G,B,C=E]/[I:staff -1][Bc=e]/)!<)![I:staff +1] z!<(! ([G,B,CE]/[I:staff -1][Bce]/)!<)![I:staff +1] z | %52
!p! ([A,CE]/[I:staff -1][Ace]/)[I:staff +1] z[I:staff -1] ([A,CE]/[Ace]/)[I:staff +1] z | %53
!<(! ([F,B,D]/[I:staff -1][Bdf]/)!<)![I:staff +1] z!<(! ([F,B,D]/[I:staff -1][Bdf]/)!<)![I:staff +1] z | %54
!mf! ([G,B,E]/[I:staff -1][GBe]/)[I:staff +1] z!<(! ([G,B,E]/[I:staff -1][GBe]/)[I:staff +1] z!<)! | %55
[I:staff -1] [A,CF]/!>(![Acf]/ z[I:staff +1] [F,A,C]/[I:staff -1][Acf]/!>)! z | %56
!p! [A,EF]/!<(![Acf]/ z[I:staff +1] [F,A,C]/[I:staff -1][Acf]/!<)! z | %57
!mf![I:staff +1] .[F,B,] z[I:staff -1] ([D,F,B,]/[DFB]/) z | %58
[I:staff +1] .[B,,F,B,] z[I:staff -1] ([D,F,B,]/[DFB]/) z | %59
!p![I:staff +1] [D,B,]2!<(![I:staff -1] ([B,DB]/[DBd]/)!<)! z | %60
[I:staff +1] [D,B,]2!<(![I:staff -1] ([B,DB]/[DBd]/)!<)! z | %61
[I:staff +1] [D,B,]2[I:staff -1] ([B,DB]/[DBd]/) z | %62
[I:staff +1] [D,B,]2!<(![I:staff -1] ([B,DB]/[DBd]/)!<)! z | !fermata!z4 |] %64
V:3
 .[B,,,F,,] z ([B,,,F,,]/[B,,F,]/) z | .[B,,,F,,] z ([B,,,F,,]/[B,,F,]/) z | %2
 .[B,,,F,,] z ([B,,,F,,]/[B,,F,]/) z | .[B,,,F,,] z ([B,,,F,,]/[B,,F,]/) z | %4
 .[B,,,F,,] z ([B,,,F,,]/[B,,F,]/) z | .[B,,,F,,] z ([B,,,F,,]/[B,,F,]/) z | %6
 .[B,,,F,,] z ([B,,,F,,]/[B,,F,]/) z | .[B,,,F,,] z ([B,,,F,,]/[B,,F,]/) z | %8
 .[B,,,F,,] z ([B,,,F,,]/[B,,G,]/) z | .[B,,,F,,] z ([B,,,F,,]/[B,,F,]/) z | %10
 [B,,C,F,] z [B,,C,F,]/[B,CF]/ z | [B,,D,F,] z [B,,D,F,]/[B,DF]/ z | %12
 [B,,E,G,] z [B,,E,G,]/[B,EG]/ z | [B,,C,=E,G,] z [B,,C,E,G,]/[B,C=EG]/ z | %14
 [A,,C,F,]/[A,CE]/ z [A,,C,F,]/[A,CE]/ z | [B,,D,F,]/[B,DF]/ z [B,,D,F,]/[B,DF]/ z | %16
 [B,,E,G,]/[B,EG]/ z [B,,E,G,]/[B,EG]/ z | [B,,F,A,]/[A,B,F]/ z [B,,C,F,]/[A,CF]/ z | %18
 [B,,E,F,]/[B,EF]/ z [B,,E,F,]/[A,CF]/ z | .[B,,,F,,] z ([B,,,F,,]/[B,,F,]/) z | %20
 .[B,,,F,,] z ([B,,,F,,]/[B,,F,]/) z | .[B,,,F,,] z ([B,,,F,,]/[B,,F,]/) z | %22
 .[B,,,F,,] z ([B,,,F,,]/[B,,F,]/) z | .[B,,,F,,] z ([B,,,F,,]/[B,,F,]/) z | %24
 .[B,,,F,,] z ([B,,,F,,]/[B,,F,]/) z | .[B,,,F,,] z ([B,,,F,,]/[B,,F,]/) z | %26
 .[B,,,F,,] z ([B,,,F,,]/[B,,F,]/) z | .[B,,,F,,] z ([B,,,F,,]/[B,,G,]/) z | %28
 .[B,,,F,,] z ([B,,,F,,]/[B,,F,]/) z | [B,,C,F,] z [B,,C,F,]/[B,CF]/ z | %30
 [B,,D,F,] z [B,,D,F,]/[B,DF]/ z | [B,,E,G,] z [B,,E,G,]/[B,EG]/ z | %32
 [B,,C,=E,G,] z [B,,C,E,G,]/[B,C=EG]/ z | [A,,C,F,]/[A,CE]/ z [A,,C,F,]/[A,CE]/ z | %34
 [B,,D,F,]/[B,DF]/ z [B,,D,F,]/[B,DF]/ z | [B,,E,G,]/[B,EG]/ z [B,,E,G,]/[B,EG]/ z | %36
 [B,,F,A,]/[A,B,F]/ z [B,,C,F,]/[A,CF]/ z | [B,,E,F,]/[B,EF]/ z [B,,E,F,]/[A,CF]/ z | %38
 .[B,,,F,,] z ([B,,,F,,]/[B,,F,]/) z | .[B,,,F,,] z ([B,,,F,,]/[B,,F,]/) z | %40
 .[B,,,F,,] z ([B,,,F,,]/[B,,F,]/) z | .[B,,,F,,] z ([B,,,F,,]/[B,,F,]/) z | %42
 .[B,,,F,,] z ([B,,,F,,]/[B,,F,]/) z | .[B,,,F,,] z ([B,,,F,,]/[B,,F,]/) z | %44
 .[B,,,F,,] z ([B,,,F,,]/[B,,F,]/) z | .[B,,,F,,] z ([B,,,F,,]/[B,,F,]/) z | %46
 .[B,,,F,,] z ([B,,,F,,]/[B,,G,]/) z | .[B,,,F,,] z ([B,,,F,,]/[B,,F,]/) z | %48
 [B,,C,F,] z [B,,C,F,]/[B,CF]/ z | [B,,D,F,] z [B,,D,F,]/[B,DF]/ z | %50
 [B,,E,G,] z [B,,E,G,]/[B,EG]/ z | [B,,C,=E,G,] z [B,,C,E,G,]/[B,C=EG]/ z | %52
 [A,,C,F,]/[A,CE]/ z [A,,C,F,]/[A,CE]/ z | [B,,D,F,]/[B,DF]/ z [B,,D,F,]/[B,DF]/ z | %54
 [B,,E,G,]/[B,EG]/ z [B,,E,G,]/[B,EG]/ z | [B,,F,A,]/[A,B,F]/ z [B,,C,F,]/[A,CF]/ z | %56
 [B,,E,F,]/[B,EF]/ z [B,,E,F,]/[A,CF]/ z | .[B,,,F,,] z ([B,,,F,,]/[B,,F,]/) z | %58
 .[B,,,F,,] z ([B,,,F,,]/[B,,F,]/) z | [B,,,F,,]2 ([F,,B,,F,]/[F,B,F]/) z | %60
 [B,,,F,,]2 ([F,,B,,F,]/[F,B,F]/) z | [B,,,F,,]2 ([F,,B,,F,]/[F,B,F]/) z | %62
 [B,,,F,,]2 ([F,,B,,F,]/[F,B,F]/) z | x4 |] %64

